static/assets/images/icons/attachment.svg

<svg width="256" height="256" viewBox="0 0 256 256" fill="none" xmlns="http://www.w3.org/2000/svg">
<path d="M190.098 66.6226C187.311 63.8461 184.001 61.6436 180.359 60.141C176.717 58.6383 172.813 57.8648 168.87 57.8648C164.927 57.8648 161.023 58.6383 157.381 60.141C153.739 61.6436 150.429 63.8461 147.642 66.6226L125.955 88.2369C120.355 93.8185 110.916 93.4713 105.187 87.7517C99.4657 82.0404 99.1277 72.6724 104.725 67.1012L126.422 45.508C131.996 39.9573 138.614 35.5542 145.897 32.5502C153.18 29.5462 160.987 28 168.87 28C176.753 28 184.56 29.5462 191.843 32.5502C199.126 35.5542 205.744 39.9573 211.318 45.508C211.318 45.508 217.578 52.3411 220.578 57.4027C228.288 70.4132 230.101 82.1426 228.427 95.2884C226.754 108.434 220.741 120.654 211.333 130.026L189.636 151.631C184.039 157.204 174.617 156.864 168.886 151.157C163.154 145.449 162.81 136.069 168.412 130.494L190.113 108.897C192.901 106.121 195.113 102.826 196.622 99.1993C198.132 95.5726 198.908 91.6853 198.908 87.7596C198.908 83.8339 198.132 79.9466 196.622 76.3199C195.113 72.6931 192.901 69.3979 190.113 66.6226L190.098 66.6226ZM66.8003 189.392C69.5876 192.169 72.8969 194.371 76.5392 195.874C80.1816 197.377 84.0856 198.15 88.0282 198.15C91.9708 198.15 95.8748 197.377 99.5171 195.874C103.159 194.371 106.469 192.169 109.256 189.392L130.946 167.785C136.546 162.207 145.977 162.549 151.706 168.264C157.43 173.974 157.766 183.345 152.164 188.917L130.476 210.492C124.902 216.043 118.284 220.446 111.001 223.45C103.718 226.454 95.9116 228 88.0282 228C80.1447 228 72.3385 226.454 65.0552 223.45C57.7719 220.446 51.1542 216.043 45.5799 210.492C40.0056 204.941 36.3204 198.597 36.3204 198.597C29.5625 187.186 26.8034 173.862 28.4767 160.719C30.1501 147.577 36.1609 135.36 45.5649 125.989L67.2696 104.377C72.8637 98.8069 82.281 99.1473 88.0163 104.849C93.7577 110.556 94.1109 119.95 88.5039 125.528L66.8003 147.118C64.0119 149.894 61.7999 153.189 60.2908 156.816C58.7816 160.442 58.0049 164.33 58.0049 168.255C58.0049 172.181 58.7816 176.068 60.2908 179.695C61.7999 183.322 64.0119 186.617 66.8003 189.392Z" fill="black"/>
<path d="M165.822 111.925C171.42 106.35 171.42 97.3125 165.822 91.7382L164.874 90.7951C159.276 85.2208 150.199 85.2208 144.601 90.7952L92.5971 142.576C86.9988 148.151 86.9988 157.189 92.5971 162.763L93.5442 163.706C99.1426 169.28 108.219 169.28 113.818 163.706L165.822 111.925Z" fill="black"/>
</svg>

<svg xmlns="http://www.w3.org/2000/svg" fill="none" viewBox="0 0 256 256"><path fill="#000" d="M190.098 66.623a30 30 0 0 0-9.739-6.482 30.12 30.12 0 0 0-22.978 0 30 30 0 0 0-9.739 6.482l-21.687 21.614c-5.6 5.582-15.039 5.234-20.768-.485-5.721-5.712-6.06-15.08-.462-20.65l21.697-21.594a60 60 0 0 1 19.475-12.958 60.26 60.26 0 0 1 45.946 0 60 60 0 0 1 19.475 12.958s6.26 6.833 9.26 11.895c7.71 13.01 9.523 24.74 7.849 37.885a59.67 59.67 0 0 1-17.094 34.738l-21.697 21.605c-5.597 5.573-15.019 5.233-20.75-.474-5.732-5.708-6.076-15.088-.474-20.663l21.701-21.597a29.9 29.9 0 0 0 6.509-9.698 29.76 29.76 0 0 0 0-22.88 29.9 29.9 0 0 0-6.509-9.696zM66.8 189.392a30 30 0 0 0 9.74 6.482 30.12 30.12 0 0 0 22.977 0 30 30 0 0 0 9.739-6.482l21.69-21.607c5.6-5.578 15.031-5.236 20.76.479 5.724 5.71 6.06 15.081.458 20.653l-21.688 21.575a60 60 0 0 1-19.475 12.958 60.25 60.25 0 0 1-45.946 0 60 60 0 0 1-19.475-12.958c-5.574-5.551-9.26-11.895-9.26-11.895a59.56 59.56 0 0 1-7.843-37.878 59.67 59.67 0 0 1 17.088-34.73l21.705-21.612c5.594-5.57 15.011-5.23 20.746.472 5.742 5.707 6.095 15.101.488 20.679L66.8 147.118a29.9 29.9 0 0 0-6.51 9.698 29.77 29.77 0 0 0 0 22.879 29.9 29.9 0 0 0 6.51 9.697"/><path fill="#000" d="M165.822 111.925c5.598-5.575 5.598-14.612 0-20.187l-.948-.943c-5.598-5.574-14.675-5.574-20.273 0l-52.004 51.781c-5.598 5.575-5.598 14.613 0 20.187l.947.943c5.599 5.574 14.675 5.574 20.274 0z"/></svg>
